src/assets/icon_course_fq.svg

<svg fill="none" height="80" viewBox="0 0 80 80" width="80" xmlns="http://www.w3.org/2000/svg"><g fill="#f5f5f5"><path d="m41.5901 38.5384c-2.374-3.5702-5.7344-6.2403-9.7175-7.7221-.7406-.2757-1.5653.1016-1.8409.8427-.2758.7412.1014 1.5655.8426 1.8411 3.4132 1.2695 6.2941 3.5603 8.3316 6.6239.2756.4147.7302.639 1.1934.639.2724 0 .5477-.0775.7914-.2396.6585-.4382.8374-1.3268.3994-1.985z"/><path d="m28.2637 17.3353c-.7906 0-1.4317.641-1.4317 1.4317v8.9185c0 .7906.641 1.4317 1.4317 1.4317s1.4318-.641 1.4318-1.4317v-8.9185c0-.7907-.6411-1.4317-1.4318-1.4317z"/><path d="m79.2525 64.8125-14.9251-28.949v-11.964c2.5268-.2346 4.5118-2.366 4.5118-4.9528 0-2.7433-2.2318-4.9752-4.9751-4.9752h-16.6401c-2.7433 0-4.9752 2.2319-4.9752 4.9752 0 2.5868 1.9849 4.7179 4.5117 4.9526v11.9641l-.5404 1.0479c-2.7207-4.5342-6.8652-8.1471-11.7517-10.199v-11.4539c2.1243-.5666 3.6942-2.5066 3.6942-4.8072 0-2.74326-2.2317-4.97513-4.9752-4.97513h-16.6399c-2.7433 0-4.9752 2.23187-4.9752 4.97513 0 2.301 1.5706 4.2416 3.6958 4.8075v11.4528c-4.3069 1.8011-7.9964 4.7583-10.71436 8.5995-2.97906 4.2103-4.55374 9.1708-4.55374 14.3455 0 13.7116 11.1554 24.8673 24.8673 24.8673 2.9734 0 5.869-.519 8.6225-1.5399 1.1761.9849 2.67 1.5394 4.2647 1.5394h35.5794c2.3417 0 4.4672-1.1939 5.6861-3.1935 1.2189-1.9995 1.3056-4.436.2325-6.5173zm-34.1402-45.8657c0-1.1643.9473-2.1118 2.1118-2.1118h16.6403c1.1647 0 2.1119.9473 2.1119 2.1118 0 1.1644-.9474 2.1119-2.1119 2.1119h-16.6403c-1.1644-.0002-2.1118-.9475-2.1118-2.1119zm-30.6767-8.4954c0-1.1644.9472-2.11189 2.1119-2.11189h16.6404c1.1644 0 2.1119.94734 2.1119 2.11189 0 1.1645-.9472 2.1118-2.1119 2.1118h-16.6404c-1.1647-.0001-2.1119-.9473-2.1119-2.1118zm10.4323 61.2092c-12.1337-.0003-22.00462-9.8712-22.00462-22.0041 0-4.5789 1.39265-8.9675 4.0278-12.6913 2.57812-3.6437 6.14262-6.3884 10.30782-7.9379.5606-.2086.9325-.7438.9325-1.3417v-12.2591h13.4737v12.2589c0 .5981.3717 1.1331.9322 1.3417 5.2547 1.9561 9.629 5.9292 12.0984 10.958l-5.4484 10.5679c-.4449-.1892-.8657-.3997-1.2991-.618-1.5931-.8017-3.3987-1.7103-6.8319-1.7103-3.4345 0-5.2399.9088-6.8326 1.711-1.4975.7537-2.7908 1.405-5.5451 1.405-2.7544 0-4.0478-.6511-5.5452-1.405-1.5928-.8019-3.39826-1.711-6.83263-1.711-.79062 0-1.43172.641-1.43172 1.4318 0 11.0273 8.97135 19.9987 19.99875 19.9987 2.1589 0 4.2589-.3393 6.2704-1.0075.0792.6622.2575 1.3148.5383 1.9375-2.1875.7137-4.4703 1.0754-6.8086 1.0754zm6.9677-6.8481c-.1041.2017-.1938.4075-.2761.6153-2.1155.9047-4.3638 1.3641-6.6924 1.3641-8.9409 0-16.30446-6.8834-17.06962-15.629 1.78547.1914 2.85152.7281 4.04792 1.3304 1.5929.8019 3.3983 1.711 6.8327 1.711 3.4345 0 5.2398-.9088 6.8326-1.711 1.4975-.7537 2.7908-1.405 5.5452-1.405 2.7534 0 4.0468.651 5.5445 1.4047.4078.2052.8231.4134 1.2709.6116zm44.7392 5.027c-.6946 1.1399-1.9062 1.8202-3.241 1.8202h-35.5795c-1.3347 0-2.5464-.6805-3.2411-1.8202-.6947-1.1396-.7442-2.5285-.1326-3.7148l15.084-29.2576c.1045-.203.1592-.4278.1592-.6561v-12.289h11.8403v12.289c0 .2283.0545.4531.1592.6561l15.0842 29.2576c.6117 1.1864.5622 2.5752-.1327 3.7148z"/><path d="m63.233 44.1556-3.6782-7.134v-9.7592c0-.7906-.6407-1.4317-1.4317-1.4317-.7909 0-1.4317.6409-1.4317 1.4317v10.1062c0 .2283.0545.4532.1592.6561l3.8372 7.4428c.2541.4931.7548.776 1.2736.776.2209 0 .4451-.0514.655-.1594.703-.3622.9791-1.2256.6166-1.9285z"/><path d="m74.9344 67.0614c-.0026-.0053-.0062-.0126-.0092-.018l-9.2933-18.0254c-.1443-.28-.3772-.5047-.662-.6389-.1811-.0853-.3566-.1737-.532-.262-1.1096-.5583-2.3667-1.191-4.7681-1.191-2.4039 0-3.6614.6335-4.7708 1.1922-.9825.495-1.7586.8858-3.4805.8858-1.7236 0-2.4998-.3906-3.4826-.8851-.1153-.058-.2308-.1161-.3474-.1736-.7003-.3439-1.547-.0644-1.904.6287l-9.513 18.4542c-.3039.5723-.2834 1.2176.0524 1.7648.1573.2593.6214.8622 1.5295.8622h35.5799c.9078 0 1.3702-.5978 1.531-.8644.1579-.2607.4676-.9345.0701-1.7295zm-35.4195-.2695v-.0002l8.0752-15.6649c.9228.4009 2.0683.7403 3.8289.7403 2.4022 0 3.6594-.6331 4.7684-1.1917.983-.4952 1.7594-.8861 3.4828-.8861 1.7214 0 2.4978.3907 3.4805.8853.0514.0258.1025.0515.1539.0773l8.2695 16.0401h-32.0592z"/></g></svg>

<svg width="80" height="80" viewBox="0 0 80 80" fill="none" xmlns="http://www.w3.org/2000/svg">
<path d="M41.5901 38.5384C39.2161 34.9682 35.8557 32.2981 31.8726 30.8163C31.132 30.5406 30.3073 30.9179 30.0317 31.659C29.7559 32.4002 30.1331 33.2245 30.8743 33.5001C34.2875 34.7696 37.1684 37.0604 39.2059 40.124C39.4815 40.5387 39.9361 40.763 40.3993 40.763C40.6717 40.763 40.947 40.6855 41.1907 40.5234C41.8492 40.0852 42.0281 39.1966 41.5901 38.5384Z" fill="#F5F5F5"/>
<path d="M28.2637 17.3353C27.4731 17.3353 26.832 17.9763 26.832 18.767V27.6855C26.832 28.4761 27.473 29.1172 28.2637 29.1172C29.0544 29.1172 29.6955 28.4762 29.6955 27.6855V18.767C29.6955 17.9763 29.0544 17.3353 28.2637 17.3353Z" fill="#F5F5F5"/>
<path d="M79.2525 64.8125L64.3274 35.8635V23.8995C66.8542 23.6649 68.8392 21.5335 68.8392 18.9467C68.8392 16.2034 66.6074 13.9715 63.8641 13.9715H47.224C44.4807 13.9715 42.2488 16.2034 42.2488 18.9467C42.2488 21.5335 44.2337 23.6646 46.7605 23.8993V35.8634L46.2201 36.9113C43.4994 32.3771 39.3549 28.7642 34.4684 26.7123V15.2584C36.5927 14.6918 38.1626 12.7518 38.1626 10.4512C38.1626 7.70794 35.9309 5.47607 33.1874 5.47607H16.5475C13.8042 5.47607 11.5723 7.70794 11.5723 10.4512C11.5723 12.7522 13.1429 14.6928 15.2681 15.2587V26.7115C10.9612 28.5126 7.2717 31.4698 4.55374 35.311C1.57468 39.5213 0 44.4818 0 49.6565C0 63.3681 11.1554 74.5238 24.8673 74.5238C27.8407 74.5238 30.7363 74.0048 33.4898 72.9839C34.6659 73.9688 36.1598 74.5233 37.7545 74.5233H73.3339C75.6756 74.5233 77.8011 73.3294 79.02 71.3298C80.2389 69.3303 80.3256 66.8938 79.2525 64.8125ZM45.1123 18.9468C45.1123 17.7825 46.0596 16.835 47.2241 16.835H63.8644C65.0291 16.835 65.9763 17.7823 65.9763 18.9468C65.9763 20.1112 65.0289 21.0587 63.8644 21.0587H47.2241C46.0597 21.0585 45.1123 20.1112 45.1123 18.9468ZM14.4356 10.4514C14.4356 9.287 15.3828 8.33951 16.5475 8.33951H33.1879C34.3523 8.33951 35.2998 9.28685 35.2998 10.4514C35.2998 11.6159 34.3526 12.5632 33.1879 12.5632H16.5475C15.3828 12.5631 14.4356 11.6159 14.4356 10.4514ZM24.8679 71.6606C12.7342 71.6603 2.86328 61.7894 2.86328 49.6565C2.86328 45.0776 4.25593 40.689 6.89108 36.9652C9.4692 33.3215 13.0337 30.5768 17.1989 29.0273C17.7595 28.8187 18.1314 28.2835 18.1314 27.6856V15.4265H31.6051V27.6854C31.6051 28.2835 31.9768 28.8185 32.5373 29.0271C37.792 30.9832 42.1663 34.9563 44.6357 39.9851L39.1873 50.553C38.7424 50.3638 38.3216 50.1533 37.8882 49.935C36.2951 49.1333 34.4895 48.2247 31.0563 48.2247C27.6218 48.2247 25.8164 49.1335 24.2237 49.9357C22.7262 50.6894 21.4329 51.3407 18.6786 51.3407C15.9242 51.3407 14.6308 50.6896 13.1334 49.9357C11.5406 49.1338 9.73514 48.2247 6.30077 48.2247C5.51015 48.2247 4.86905 48.8657 4.86905 49.6565C4.86905 60.6838 13.8404 69.6552 24.8678 69.6552C27.0267 69.6552 29.1267 69.3159 31.1382 68.6477C31.2174 69.3099 31.3957 69.9625 31.6765 70.5852C29.489 71.2989 27.2062 71.6606 24.8679 71.6606ZM31.8356 64.8125C31.7315 65.0142 31.6418 65.22 31.5595 65.4278C29.444 66.3325 27.1957 66.7919 24.8671 66.7919C15.9262 66.7919 8.56264 59.9085 7.79748 51.1629C9.58295 51.3543 10.649 51.891 11.8454 52.4933C13.4383 53.2952 15.2437 54.2043 18.6781 54.2043C22.1126 54.2043 23.9179 53.2955 25.5107 52.4933C27.0082 51.7396 28.3015 51.0883 31.0559 51.0883C33.8093 51.0883 35.1027 51.7393 36.6004 52.493C37.0082 52.6982 37.4235 52.9064 37.8713 53.1046L31.8356 64.8125ZM76.5748 69.8395C75.8802 70.9794 74.6686 71.6597 73.3338 71.6597H37.7543C36.4196 71.6597 35.2079 70.9792 34.5132 69.8395C33.8185 68.6999 33.769 67.311 34.3806 66.1247L49.4646 36.8671C49.5691 36.6641 49.6238 36.4393 49.6238 36.211V23.922H61.4641V36.211C61.4641 36.4393 61.5186 36.6641 61.6233 36.8671L76.7075 66.1247C77.3192 67.3111 77.2697 68.6999 76.5748 69.8395Z" fill="#F5F5F5"/>
<path d="M63.233 44.1556L59.5548 37.0216V27.2624C59.5548 26.4718 58.9141 25.8307 58.1231 25.8307C57.3322 25.8307 56.6914 26.4716 56.6914 27.2624V37.3686C56.6914 37.5969 56.7459 37.8218 56.8506 38.0247L60.6878 45.4675C60.9419 45.9606 61.4426 46.2435 61.9614 46.2435C62.1823 46.2435 62.4065 46.1921 62.6164 46.0841C63.3194 45.7219 63.5955 44.8585 63.233 44.1556Z" fill="#F5F5F5"/>
<path d="M74.9344 67.0614C74.9318 67.0561 74.9282 67.0488 74.9252 67.0434L65.6319 49.018C65.4876 48.738 65.2547 48.5133 64.9699 48.3791C64.7888 48.2938 64.6133 48.2054 64.4379 48.1171C63.3283 47.5588 62.0712 46.9261 59.6698 46.9261C57.2659 46.9261 56.0084 47.5596 54.899 48.1183C53.9165 48.6133 53.1404 49.0041 51.4185 49.0041C49.6949 49.0041 48.9187 48.6135 47.9359 48.119C47.8206 48.061 47.7051 48.0029 47.5885 47.9454C46.8882 47.6015 46.0415 47.881 45.6845 48.5741L36.1715 67.0283C35.8676 67.6006 35.8881 68.2459 36.2239 68.7931C36.3812 69.0524 36.8453 69.6553 37.7534 69.6553H73.3333C74.2411 69.6553 74.7035 69.0575 74.8643 68.7909C75.0222 68.5302 75.3319 67.8564 74.9344 67.0614ZM39.5149 66.7919V66.7917L47.5901 51.1268C48.5129 51.5277 49.6584 51.8671 51.419 51.8671C53.8212 51.8671 55.0784 51.234 56.1874 50.6754C57.1704 50.1802 57.9468 49.7893 59.6702 49.7893C61.3916 49.7893 62.168 50.18 63.1507 50.6746C63.2021 50.7004 63.2532 50.7261 63.3046 50.7519L71.5741 66.792H39.5149V66.7919Z" fill="#F5F5F5"/>
</svg>
